icons/battery-charge-line.svg

<svg xmlns="http://www.w3.org/2000/svg" width="24" height="24" fill="none"><g clip-path="url(#a)"><g><path fill="#121212" d="M8 19H3C2.73478 19 2.48043 18.8946 2.29289 18.7071C2.10536 18.5196 2 18.2652 2 18V6C2 5.73478 2.10536 5.48043 2.29289 5.29289C2.48043 5.10536 2.73478 5 3 5H9.625L8.458 7H4V17H8V19ZM12.375 19L13.542 17H18V7H14V5H19C19.2652 5 19.5196 5.10536 19.7071 5.29289C19.8946 5.48043 20 5.73478 20 6V18C20 18.2652 19.8946 18.5196 19.7071 18.7071C19.5196 18.8946 19.2652 19 19 19H12.375ZM21 9H23V15H21V9ZM12 11H15L10 19V13H7L12 5V11Z"/></g></g><defs><clipPath id="a"><rect width="24" height="24" fill="white"/></clipPath></defs></svg>

<svg width="24" height="24" fill="none" xmlns="http://www.w3.org/2000/svg"><g clip-path="url(#a)"><path d="M8 19H3a1 1 0 0 1-1-1V6a1 1 0 0 1 1-1h6.625L8.458 7H4v10h4v2Zm4.375 0 1.167-2H18V7h-4V5h5a1 1 0 0 1 1 1v12a1 1 0 0 1-1 1h-6.625ZM21 9h2v6h-2V9Zm-9 2h3l-5 8v-6H7l5-8v6Z" /></g><defs><clipPath id="a"><path fill="#fff" d="M0 0h24v24H0z"/></clipPath></defs></svg>
